public/assets/images/utils/hearth.svg

<svg width="42" height="42" viewBox="0 0 42 42" fill="none" xmlns="http://www.w3.org/2000/svg">
<rect width="42" height="42" rx="21" fill="white"/>
<rect x="0.5" y="0.5" width="41" height="41" rx="20.5" stroke="#007DFE" stroke-opacity="0.5373"/>
<path d="M10.5 16.1C10.5 14.1398 10.5 13.1597 10.8815 12.411C11.217 11.7525 11.7525 11.217 12.411 10.8815C13.1597 10.5 14.1398 10.5 16.1 10.5H25.9C27.8602 10.5 28.8403 10.5 29.589 10.8815C30.2475 11.217 30.783 11.7525 31.1185 12.411C31.5 13.1597 31.5 14.1398 31.5 16.1V22.75C31.5 24.3808 31.5 25.1962 31.2336 25.8394C30.8783 26.697 30.197 27.3783 29.3394 27.7336C28.6962 28 27.8808 28 26.25 28C25.68 28 25.395 28 25.1306 28.0624C24.778 28.1456 24.4497 28.3098 24.1716 28.5419C23.963 28.716 23.792 28.944 23.45 29.4L21.7467 31.6711C21.4934 32.0089 21.3667 32.1777 21.2114 32.2381C21.0754 32.291 20.9246 32.291 20.7886 32.2381C20.6333 32.1777 20.5066 32.0089 20.2533 31.6711L18.55 29.4C18.208 28.944 18.037 28.716 17.8284 28.5419C17.5503 28.3098 17.222 28.1456 16.8694 28.0624C16.605 28 16.32 28 15.75 28C14.1192 28 13.3038 28 12.6606 27.7336C11.803 27.3783 11.1217 26.697 10.7664 25.8394C10.5 25.1962 10.5 24.3808 10.5 22.75V16.1Z" stroke="#0078D4" stroke-linecap="round" stroke-linejoin="round"/>
<path fill-rule="evenodd" clip-rule="evenodd" d="M20.9968 16.719C20.0638 15.6585 18.5079 15.3733 17.3389 16.3444C16.1698 17.3155 16.0053 18.9391 16.9233 20.0876C17.4692 20.7706 18.8063 21.9953 19.8006 22.8759C20.211 23.2395 20.4162 23.4212 20.6633 23.4949C20.8746 23.558 21.119 23.558 21.3304 23.4949C21.5774 23.4212 21.7826 23.2395 22.193 22.8759C23.1873 21.9953 24.5244 20.7706 25.0703 20.0876C25.9884 18.9391 25.8439 17.3052 24.6547 16.3444C23.4656 15.3835 21.9298 15.6585 20.9968 16.719Z" stroke="#0078D4" stroke-linecap="round" stroke-linejoin="round"/>
</svg>

<svg xmlns="http://www.w3.org/2000/svg" fill="none" viewBox="0 0 42 42"><rect width="42" height="42" fill="#fff" rx="21"/><rect width="41" height="41" x=".5" y=".5" stroke="#007dfe" stroke-opacity=".537" rx="20.5"/><path stroke="#0078d4" stroke-linecap="round" stroke-linejoin="round" d="M10.5 16.1c0-1.96 0-2.94.382-3.689a3.5 3.5 0 0 1 1.529-1.53c.749-.381 1.729-.381 3.689-.381h9.8c1.96 0 2.94 0 3.689.382a3.5 3.5 0 0 1 1.53 1.529c.381.749.381 1.729.381 3.689v6.65c0 1.63 0 2.446-.266 3.09a3.5 3.5 0 0 1-1.895 1.894C28.696 28 27.881 28 26.25 28c-.57 0-.855 0-1.12.062-.352.084-.68.248-.958.48-.209.174-.38.402-.722.858l-1.703 2.271c-.254.338-.38.507-.536.567a.58.58 0 0 1-.422 0c-.156-.06-.282-.23-.536-.567L18.55 29.4c-.342-.456-.513-.684-.722-.858a2.3 2.3 0 0 0-.959-.48C16.605 28 16.32 28 15.75 28c-1.63 0-2.446 0-3.09-.266a3.5 3.5 0 0 1-1.894-1.895c-.266-.643-.266-1.458-.266-3.089z"/><path stroke="#0078d4" stroke-linecap="round" stroke-linejoin="round" d="M20.997 16.719c-.933-1.06-2.49-1.346-3.658-.375-1.17.971-1.334 2.595-.416 3.744.546.683 1.883 1.907 2.878 2.788.41.363.615.545.862.619a1.2 1.2 0 0 0 .667 0c.247-.074.453-.256.863-.62.994-.88 2.331-2.104 2.877-2.787.918-1.149.774-2.783-.415-3.744-1.19-.96-2.725-.686-3.658.375" clip-rule="evenodd"/></svg>
